X:2998
T:Chois Tinn, An
M:C|
L:1/8
S:J\"orgen Fischer
R:reel
Z:id:hn-reel-768
K:Ador
EG|:AcBG AEEA|cAAG ~A2EG|AcBA GEDE|1 GEDE G2EG:|2 GEDE G2d2||
|:eged eA~A2|e2dG GABd|~e2de gedB|1 cAAG AGed:|2 cAAG AG||


